X:25
T:Hpps simple chords 42
M:3/4
L:1/8
K:D
(3ABc [dD,F,A,]>c d>A | F>A d>f [eE,G,B,]>d | c>B A2 g2 | [fD,F,A,]>g a>f g>f | e>d [eE,G,B,]>d c>B |
A>g f>e [dD,F,A,]>c | d>A F>A d>f | [eE,G,B,]>d c>B A2 | g2 [fD,F,A,]>g a>f |
b>g e>c [d2D,2F,2A,2] | f2 d2 (3ABc | [dD,F,A,]>c d>A F>A | d>f [eE,G,B,]>d c>B |
A2 g2 [fD,F,A,]>g | a>f g>f e>d | [eE,G,B,]>d c>B A>g | f>e [dD,F,A,]>c d>A |
F>A d>f [eE,G,B,]>d | c>B A2 g2 | [fD,F,A,]>g a>f b>g | e>c [d2D,2F,2A,2] f2 |
d2 f>g [aD,F,A,]>f | a>f d2 g>a | [bG,B,D]>g b>g e2 | f>g [aD,F,A,]>f b>a |
g>f e>d [eE,G,B,]>d | c>B A>g f>e | [dD,F,A,]>c d>A F>A | d>f [eE,G,B,]>d c>B |
A2 g2 [fD,F,A,]>g | a>f b>g e>c | [d2D,2F,2A,2] f2 d2 | f>g [aD,F,A,]>f a>f |
d2 g>a [bG,B,D]>g | b>g e2 f>g | [aD,F,A,]>f b>a g>f | e>d [eE,G,B,]>d c>B |
A>g f>e [dD,F,A,]>c | d>A F>A d>f | [eE,G,B,]>d c>B A2 | g2 [fD,F,A,]>g a>f |
b>g e>c [d2D,2F,2A,2] | f2 d2 |


